;FLAVOR:Marlin
;TIME:24948
;Filament used: 20.1459m
;Layer height: 0.2
;MINX:67.738
;MINY:89
;MINZ:0.2
;MAXX:260
;MAXY:211
;MAXZ:25
;Generated with Cura_SteamEngine main
M140 S60
M105
M190 S60
M104 S200
M105
M109 S200
M82 ;absolute extrusion mode
; Ender 3 Max Custom Start G-code
G92 E0 ; Reset Extruder
G28 ; Home all axes
G1 Z2.0 F3000 ; Move Z Axis up little to prevent scratching of Heat Bed
G1 X0.1 Y20 Z0.3 F5000.0 ; Move to start position
G1 X0.1 Y200.0 Z0.3 F1500.0 E15 ; Draw the first line
G1 X0.4 Y200.0 Z0.3 F5000.0 ; Move to side a little
G1 X0.4 Y20 Z0.3 F1500.0 E30 ; Draw the second line
G92 E0 ; Reset Extruder
G1 Z2.0 F3000 ; Move Z Axis up little to prevent scratching of Heat Bed
G1 X5 Y20 Z0.3 F5000.0 ; Move over to prevent blob squish
G92 E0
G92 E0
G1 F1500 E-6.5
;LAYER_COUNT:125
;LAYER:0
M107
G0 F6000 X71.624 Y91.627 Z0.2
G0 X67.739 Y100.525
;TYPE:SKIRT
G1 F1500 E0
G1 F1200 X67.748 Y99.86 E0.02212
G1 X67.801 Y98.924 E0.0533
G1 X67.933 Y97.995 E0.08451
G1 X68.144 Y97.081 E0.11571
G1 X68.432 Y96.189 E0.14689
G1 X68.795 Y95.324 E0.17809
G1 X69.23 Y94.493 E0.20928
G1 X69.734 Y93.703 E0.24045
G1 X70.304 Y92.958 E0.27165
G1 X70.936 Y92.264 E0.30287
G1 X71.624 Y91.627 E0.33405
G1 X72.364 Y91.051 E0.36524
G1 X73.15 Y90.539 E0.39644
G1 X73.977 Y90.097 E0.42763
G1 X74.839 Y89.727 E0.45883
G1 X75.729 Y89.431 E0.49003
G1 X76.641 Y89.213 E0.52122
G1 X77.568 Y89.072 E0.5524
G1 X78.439 Y89.013 E0.58144
G1 X79.068 Y89 E0.60236
G1 X80.655 Y89 E0.65515
G1 X81.515 Y89.011 E0.68375
G1 X82.452 Y89.064 E0.71497
G1 X83.38 Y89.197 E0.74615
G1 X84.576 Y89.491 E0.78711
G1 X85.6 Y89.804 E0.82273
G1 X88.066 Y90.521 E0.90814
G1 X90.509 Y91.158 E0.99211
G1 X92.97 Y91.725 E1.07611
G1 X95.446 Y92.222 E1.16011
G1 X97.919 Y92.646 E1.24356
G1 X100.422 Y93.002 E1.32765
G1 X102.894 Y93.284 E1.4104
G1 X105.429 Y93.501 E1.49502
G1 X107.931 Y93.642 E1.57837
G1 X110.427 Y93.714 E1.66142
G1 X112.951 Y93.714 E1.74537
G1 X115.476 Y93.643 E1.82939
G1 X117.992 Y93.502 E1.9132
G1 X120.508 Y93.288 E1.99718
G1 X122.988 Y93.007 E2.0802
G1 X125.525 Y92.646 E2.16543
G1 X127.976 Y92.227 E2.24813
G1 X130.416 Y91.739 E2.33089
G1 X132.874 Y91.173 E2.41479
G1 X135.328 Y90.535 E2.49912
G1 X137.835 Y89.807 E2.58595
G1 X138.788 Y89.51 E2.61915
G1 X139.694 Y89.269 E2.65033
G1 X140.618 Y89.106 E2.68154
G1 X141.731 Y89.015 E2.71868
G1 X142.476 Y89 E2.74346
G1 X143.814 Y89.01 E2.78797
G1 X144.751 Y89.057 E2.81917
G1 X145.738 Y89.194 E2.85231
G1 X146.73 Y89.378 E2.88587
G1 X147.651 Y89.562 E2.91711
G1 X150.117 Y89.984 E3.00032
G1 X152.626 Y90.34 E3.0846
G1 X155.115 Y90.622 E3.16792
G1 X157.614 Y90.833 E3.25133
G1 X160.15 Y90.975 E3.33581
G1 X162.67 Y91.046 E3.41966
G1 X165.194 Y91.044 E3.50361
G1 X167.683 Y90.973 E3.58643
G1 X170.202 Y90.829 E3.67035
G1 X172.712 Y90.614 E3.75413
G1 X175.229 Y90.327 E3.83839
G1 X177.697 Y89.974 E3.92131
G1 X180.213 Y89.542 E4.00622
G1 X181.907 Y89.212 E4.06362
G1 X182.834 Y89.072 E4.0948
G1 X183.701 Y89.013 E4.12371
G1 X184.33 Y89 E4.14463
G1 X248.435 Y89.001 E6.27677
G1 X249.133 Y89.01 E6.29999
G1 X250.069 Y89.062 E6.33117
G1 X250.998 Y89.194 E6.36238
G1 X251.912 Y89.404 E6.39357
G1 X252.805 Y89.691 E6.42477
G1 X253.67 Y90.054 E6.45597
G1 X254.501 Y90.488 E6.48715
G1 X255.292 Y90.992 E6.51835
G1 X256.037 Y91.562 E6.54955
G1 X256.731 Y92.193 E6.58074
G1 X257.368 Y92.88 E6.6119
G1 X257.945 Y93.62 E6.64311
G1 X258.457 Y94.406 E6.67431
G1 X258.9 Y95.233 E6.70552
G1 X259.271 Y96.094 E6.7367
G1 X259.567 Y96.984 E6.7679
G1 X259.786 Y97.896 E6.79909
G1 X259.927 Y98.823 E6.83028
G1 X259.987 Y99.701 E6.85955
G1 X260 Y100.33 E6.88047
G1 X259.999 Y199.4 E10.17556
G1 X259.99 Y200.127 E10.19974
G1 X259.939 Y201.064 E10.23095
G1 X259.807 Y201.992 E10.26212
G1 X259.598 Y202.906 E10.29331
G1 X259.311 Y203.799 E10.32451
G1 X258.949 Y204.665 E10.35572
G1 X258.515 Y205.496 E10.38691
G1 X258.011 Y206.287 E10.4181
G1 X257.442 Y207.032 E10.44928
G1 X256.811 Y207.727 E10.4805
G1 X256.124 Y208.365 E10.51169
G1 X255.385 Y208.942 E10.54287
G1 X254.599 Y209.454 E10.57407
G1 X253.773 Y209.897 E10.60524
G1 X252.911 Y210.269 E10.63647
G1 X252.022 Y210.565 E10.66763
G1 X251.11 Y210.785 E10.69884
G1 X250.183 Y210.926 E10.73002
G1 X249.299 Y210.987 E10.7595
G1 X248.67 Y211 E10.78042
G1 X184.55 Y210.999 E12.91306
G1 X183.849 Y210.989 E12.93638
G1 X182.913 Y210.936 E12.96756
G1 X182 Y210.806 E12.99823
G1 X181.008 Y210.622 E13.03179
G1 X180.087 Y210.438 E13.06303
G1 X177.621 Y210.016 E13.14624
G1 X175.112 Y209.66 E13.23053
G1 X172.623 Y209.378 E13.31384
G1 X170.124 Y209.167 E13.39725
G1 X167.588 Y209.025 E13.48173
G1 X165.068 Y208.954 E13.56558
G1 X162.544 Y208.956 E13.64953
G1 X160.055 Y209.027 E13.73235
G1 X157.536 Y209.171 E13.81627
G1 X155.026 Y209.386 E13.90006
G1 X152.509 Y209.673 E13.98431
G1 X150.041 Y210.026 E14.06723
G1 X147.525 Y210.458 E14.15214
G1 X145.831 Y210.788 E14.20954
G1 X144.904 Y210.928 E14.24073
G1 X144.037 Y210.987 E14.26963
G1 X143.408 Y211 E14.29055
G1 X79.303 Y210.999 E16.42269
G1 X78.605 Y210.99 E16.44591
G1 X77.669 Y210.938 E16.47709
G1 X76.74 Y210.806 E16.5083
G1 X75.826 Y210.596 E16.53949
G1 X74.933 Y210.309 E16.57069
G1 X74.068 Y209.946 E16.60189
G1 X73.237 Y209.512 E16.63307
G1 X72.446 Y209.008 E16.66427
G1 X71.701 Y208.438 E16.69547
G1 X71.007 Y207.807 E16.72666
G1 X70.37 Y207.12 E16.75782
G1 X69.793 Y206.38 E16.78904
G1 X69.281 Y205.594 E16.82023
G1 X68.838 Y204.767 E16.85144
G1 X68.467 Y203.906 E16.88262
G1 X68.171 Y203.016 E16.91382
G1 X67.952 Y202.104 E16.94501
G1 X67.811 Y201.177 E16.9762
G1 X67.751 Y200.288 E17.00583
G1 X67.738 Y199.658 E17.02679
G1 X67.739 Y100.525 E20.32397
G0 F6000 X68.139 Y100.531
G1 F1200 X68.148 Y99.866 E20.34609
G1 X68.2 Y98.946 E20.37674
G1 X68.332 Y98.035 E20.40735
G1 X68.543 Y97.139 E20.43797
G1 X68.83 Y96.264 E20.4686
G1 X69.193 Y95.418 E20.49922
G1 X69.627 Y94.606 E20.52984
G1 X70.13 Y93.835 E20.56046
G1 X70.699 Y93.111 E20.59109
G1 X71.327 Y92.439 E20.62168
G1 X72.012 Y91.823 E20.65232
G1 X72.748 Y91.27 E20.68294
G1 X73.529 Y90.782 E20.71357
G1 X74.349 Y90.364 E20.74418
G1 X75.203 Y90.019 E20.77481
G1 X76.083 Y89.749 E20.80543
G1 X76.983 Y89.557 E20.83604
G1 X77.897 Y89.443 E20.86667
G1 X78.45 Y89.413 E20.88509
G1 X79.068 Y89.4 E20.90565
G1 X80.655 Y89.4 E20.95844
G1 X81.51 Y89.411 E20.98688
G1 X82.429 Y89.464 E21.01749
G1 X83.34 Y89.597 E21.04811
G1 X84.459 Y89.873 E21.08645
G1 X85.5 Y90.191 E21.12265
G1 X87.968 Y90.909 E21.20814
G1 X90.424 Y91.549 E21.29255
G1 X92.874 Y92.113 E21.37617
G1 X95.399 Y92.62 E21.46183
G1 X97.838 Y93.038 E21.54414
G1 X100.352 Y93.397 E21.6286
G1 X102.887 Y93.685 E21.71346
G1 X105.372 Y93.898 E21.79641
G1 X107.899 Y94.041 E21.88059
G1 X110.45 Y94.114 E21.96548
G1 X112.962 Y94.114 E22.04902
G1 X115.509 Y94.043 E22.13377
G1 X118.014 Y93.902 E22.21722
G1 X120.551 Y93.687 E22.3019
G1 X123.018 Y93.407 E22.38448
G1 X125.577 Y93.043 E22.47045
G1 X128.05 Y92.62 E22.5539
G1 X130.486 Y92.133 E22.63652
G1 X132.984 Y91.557 E22.72179
G1 X135.467 Y90.911 E22.80712
G1 X137.878 Y90.212 E22.89061
G1 X138.907 Y89.891 E22.92647
G1 X139.797 Y89.656 E22.95708
G1 X140.704 Y89.498 E22.9877
G1 X141.743 Y89.415 E23.02237
G1 X142.473 Y89.4 E23.04666
G1 X143.811 Y89.41 E23.09116
G1 X144.731 Y89.457 E23.1218
G1 X145.665 Y89.588 E23.15317
G1 X146.657 Y89.772 E23.18672
G1 X147.571 Y89.954 E23.21772
G1 X150.065 Y90.381 E23.30188
G1 X152.562 Y90.735 E23.38576
G1 X155.104 Y91.023 E23.47085
G1 X157.597 Y91.233 E23.55406
G1 X160.115 Y91.375 E23.63794
G1 X162.659 Y91.446 E23.72259
G1 X165.17 Y91.444 E23.8061
G1 X167.718 Y91.371 E23.89089
G1 X170.258 Y91.226 E23.9755
G1 X172.72 Y91.016 E24.05769
G1 X175.299 Y90.721 E24.14402
G1 X177.75 Y90.371 E24.22637
G1 X180.306 Y89.932 E24.31263
G1 X181.983 Y89.605 E24.36946
G1 X182.894 Y89.468 E24.4001
G1 X183.712 Y89.413 E24.42737
G1 X184.33 Y89.4 E24.44793
G1 X248.43 Y89.401 E26.5799
G1 X249.128 Y89.41 E26.60312
G1 X250.047 Y89.462 E26.63373
G1 X250.958 Y89.593 E26.66434
G1 X251.854 Y89.803 E26.69495
G1 X252.729 Y90.09 E26.72558
G1 X253.576 Y90.452 E26.75622
G1 X254.388 Y90.886 E26.78684
G1 X255.159 Y91.388 E26.81744
G1 X255.884 Y91.956 E26.84807
G1 X256.557 Y92.585 E26.87871
G1 X257.172 Y93.269 E26.90931
G1 X257.726 Y94.004 E26.93992
G1 X258.214 Y94.785 E26.97055
G1 X258.633 Y95.605 E27.00118
G1 X258.979 Y96.458 E27.03179
G1 X259.249 Y97.338 E27.06241
G1 X259.442 Y98.239 E27.09305
G1 X259.556 Y99.152 E27.12366
G1 X259.587 Y99.712 E27.14231
G1 X259.6 Y100.33 E27.16287
G1 X259.599 Y199.395 E30.45779
G1 X259.59 Y200.122 E30.48197
G1 X259.539 Y201.041 E30.51258
G1 X259.408 Y201.953 E30.54323
G1 X259.198 Y202.849 E30.57383
G1 X258.912 Y203.724 E30.60445
G1 X258.551 Y204.571 E30.63507
G1 X258.117 Y205.383 E30.6657
G1 X257.615 Y206.155 E30.69633
G1 X257.047 Y206.88 E30.72696
G1 X256.419 Y207.553 E30.75757
G1 X255.735 Y208.169 E30.78819
G1 X255 Y208.723 E30.8188
G1 X254.22 Y209.212 E30.84942
G1 X253.4 Y209.631 E30.88005
G1 X252.547 Y209.977 E30.91067
G1 X251.667 Y210.248 E30.94129
G1 X250.767 Y210.441 E30.97191
G1 X249.853 Y210.556 E31.00255
G1 X249.288 Y210.587 E31.02137
G1 X248.67 Y210.6 E31.04192
G1 X184.556 Y210.599 E33.17437
G1 X183.855 Y210.589 E33.19768
G1 X182.936 Y210.536 E33.2283
G1 X182.073 Y210.412 E33.2573
G1 X181.081 Y210.228 E33.29085
G1 X180.167 Y210.046 E33.32185
G1 X177.673 Y209.619 E33.40601
G1 X175.176 Y209.265 E33.48989
G1 X172.634 Y208.977 E33.57498
G1 X170.141 Y208.767 E33.65819
G1 X167.623 Y208.625 E33.74207
G1 X165.079 Y208.554 E33.82672
G1 X162.568 Y208.556 E33.91023
G1 X160.02 Y208.629 E33.99502
G1 X157.48 Y208.774 E34.07963
G1 X155.018 Y208.984 E34.16182
G1 X152.439 Y209.279 E34.24816
G1 X149.988 Y209.629 E34.3305
G1 X147.432 Y210.068 E34.41676
G1 X145.755 Y210.395 E34.47359
G1 X144.844 Y210.532 E34.50423
G1 X144.026 Y210.587 E34.5315
G1 X143.408 Y210.6 E34.55206
G1 X79.308 Y210.599 E36.68403
G1 X78.61 Y210.59 E36.70725
G1 X77.691 Y210.538 E36.73786
G1 X76.78 Y210.407 E36.76848
G1 X75.884 Y210.197 E36.79908
G1 X75.009 Y209.91 E36.82971
G1 X74.162 Y209.548 E36.86035
G1 X73.35 Y209.114 E36.89097
G1 X72.579 Y208.612 E36.92157
G1 X71.854 Y208.044 E36.9522
G1 X71.181 Y207.415 E36.98284
G1 X70.566 Y206.731 E37.01344
G1 X70.012 Y205.996 E37.04405
G1 X69.524 Y205.215 E37.07468
G1 X69.105 Y204.395 E37.10531
G1 X68.759 Y203.542 E37.13592
G1 X68.489 Y202.662 E37.16654
G1 X68.296 Y201.761 E37.19719
G1 X68.182 Y200.848 E37.22779
G1 X68.151 Y200.277 E37.24681
G1 X68.138 Y199.658 E37.2674
G1 X68.139 Y100.531 E40.56438
G0 F6000 X68.539 Y100.536
G1 F1200 X68.548 Y99.871 E40.5865
G1 X68.6 Y98.969 E40.61655
G1 X68.732 Y98.076 E40.64657
G1 X68.942 Y97.198 E40.6766
G1 X69.229 Y96.341 E40.70666
G1 X69.591 Y95.514 E40.73668
G1 X70.024 Y94.722 E40.76671
G1 X70.526 Y93.971 E40.79675
G1 X71.093 Y93.267 E40.82682
G1 X71.719 Y92.617 E40.85683
G1 X72.4 Y92.024 E40.88686
G1 X73.132 Y91.494 E40.91692
G1 X73.907 Y91.031 E40.94695
G1 X74.72 Y90.638 E40.97698
G1 X75.565 Y90.318 E41.00704
G1 X76.434 Y90.075 E41.03705
G1 X77.322 Y89.909 E41.06709
G1 X78.461 Y89.813 E41.10511
G1 X79.068 Y89.8 E41.12531
G1 X80.655 Y89.8 E41.17809
G1 X81.504 Y89.811 E41.20633
G1 X82.405 Y89.864 E41.23635
G1 X83.299 Y89.996 E41.26641
G1 X84.342 Y90.256 E41.30216
G1 X85.353 Y90.565 E41.33732
G1 X87.86 Y91.295 E41.42416
G1 X90.339 Y91.94 E41.50936
G1 X92.77 Y92.5 E41.59233
G1 X95.331 Y93.014 E41.67921
G1 X97.78 Y93.434 E41.76186
G1 X100.287 Y93.791 E41.84608
G1 X102.844 Y94.082 E41.93168
G1 X105.351 Y94.297 E42.01536
G1 X107.899 Y94.441 E42.10025
G1 X110.439 Y94.514 E42.18476
G1 X112.973 Y94.514 E42.26904
G1 X115.508 Y94.443 E42.35339
G1 X118.035 Y94.301 E42.43757
G1 X120.594 Y94.084 E42.52299
G1 X123.123 Y93.797 E42.60764
G1 X125.596 Y93.445 E42.69073
G1 X128.125 Y93.013 E42.77606
G1 X130.583 Y92.521 E42.85943
G1 X133.103 Y91.941 E42.94544
G1 X135.541 Y91.306 E43.02923
G1 X137.998 Y90.594 E43.11432
G1 X139.026 Y90.273 E43.15014
G1 X139.899 Y90.043 E43.18016
G1 X140.789 Y89.89 E43.2102
G1 X141.755 Y89.815 E43.24243
G1 X142.47 Y89.8 E43.26621
G1 X143.808 Y89.81 E43.31071
G1 X144.71 Y89.857 E43.34076
G1 X145.592 Y89.981 E43.37038
G1 X146.729 Y90.193 E43.40885
G1 X147.503 Y90.348 E43.4351
G1 X150.012 Y90.777 E43.51976
G1 X152.527 Y91.134 E43.60425
G1 X155.027 Y91.417 E43.68793
G1 X157.575 Y91.632 E43.77298
G1 X160.118 Y91.775 E43.8577
G1 X162.648 Y91.846 E43.94188
G1 X165.182 Y91.844 E44.02616
G1 X167.75 Y91.771 E44.1116
G1 X170.246 Y91.628 E44.19476
G1 X172.798 Y91.41 E44.27995
G1 X175.334 Y91.12 E44.36484
G1 X177.803 Y90.768 E44.44779
G1 X180.363 Y90.328 E44.53419
G1 X182.06 Y89.997 E44.59169
G1 X182.953 Y89.864 E44.62172
G1 X183.723 Y89.813 E44.64739
G1 X184.33 Y89.8 E44.66758
G1 X248.425 Y89.801 E46.79939
G1 X249.123 Y89.81 E46.82261
G1 X250.024 Y89.861 E46.85262
G1 X250.918 Y89.993 E46.88268
G1 X251.796 Y90.202 E46.9127
G1 X252.653 Y90.489 E46.94276
G1 X253.48 Y90.85 E46.97277
G1 X254.273 Y91.283 E47.00282
G1 X255.024 Y91.784 E47.03285
G1 X255.728 Y92.35 E47.06289
G1 X256.379 Y92.976 E47.09293
G1 X256.972 Y93.657 E47.12297
G1 X257.502 Y94.388 E47.153
G1 X257.966 Y95.163 E47.18304
G1 X258.36 Y95.976 E47.21309
G1 X258.68 Y96.82 E47.24311
G1 X258.924 Y97.69 E47.27316
G1 X259.09 Y98.578 E47.30321
G1 X259.187 Y99.723 E47.34143
G1 X259.2 Y100.33 E47.36162
G1 X259.199 Y199.39 E50.65637
G1 X259.19 Y200.117 E50.68055
G1 X259.139 Y201.019 E50.7106
G1 X259.008 Y201.913 E50.74065
G1 X258.799 Y202.791 E50.77067
G1 X258.513 Y203.648 E50.80072
G1 X258.152 Y204.476 E50.83077
G1 X257.72 Y205.268 E50.86077
G1 X257.219 Y206.02 E50.89083
G1 X256.653 Y206.724 E50.92087
G1 X256.028 Y207.375 E50.95089
G1 X255.347 Y207.969 E50.98094
G1 X254.616 Y208.5 E51.01099
G1 X253.842 Y208.964 E51.04101
G1 X253.029 Y209.358 E51.07106
G1 X252.185 Y209.678 E51.10108
G1 X251.315 Y209.923 E51.13114
G1 X250.428 Y210.089 E51.16115
G1 X249.277 Y210.187 E51.19957
G1 X248.67 Y210.2 E51.21977
G1 X184.562 Y210.199 E53.35201
G1 X183.861 Y210.189 E53.37533
G1 X182.959 Y210.136 E53.40538
G1 X182.146 Y210.019 E53.4327
G1 X181.009 Y209.807 E53.47117
G1 X180.235 Y209.652 E53.49742
G1 X177.726 Y209.223 E53.58208
G1 X175.211 Y208.866 E53.66657
G1 X172.711 Y208.583 E53.75025
G1 X170.163 Y208.368 E53.8353
G1 X167.62 Y208.225 E53.92001
G1 X165.09 Y208.154 E54.00419
G1 X162.556 Y208.156 E54.08847
G1 X159.988 Y208.229 E54.17392
G1 X157.492 Y208.372 E54.25707
G1 X154.94 Y208.59 E54.34226
G1 X152.404 Y208.88 E54.42716
G1 X149.935 Y209.232 E54.51011
G1 X147.375 Y209.672 E54.5965
G1 X145.678 Y210.003 E54.65401
G1 X144.785 Y210.136 E54.68404
G1 X144.015 Y210.187 E54.70971
G1 X143.408 Y210.2 E54.7299
G1 X79.313 Y210.199 E56.86171
G1 X78.615 Y210.19 E56.88493
G1 X77.714 Y210.139 E56.91494
G1 X76.82 Y210.007 E56.945
G1 X75.942 Y209.798 E56.97502
G1 X75.085 Y209.511 E57.00508
G1 X74.258 Y209.15 E57.03509
G1 X73.465 Y208.717 E57.06514
G1 X72.714 Y208.216 E57.09517
G1 X72.01 Y207.65 E57.12521
G1 X71.359 Y207.024 E57.15525
G1 X70.766 Y206.343 E57.18528
G1 X70.236 Y205.612 E57.21531
G1 X69.772 Y204.837 E57.24536
G1 X69.378 Y204.024 E57.27541
G1 X69.058 Y203.18 E57.30543
G1 X68.814 Y202.31 E57.33548
G1 X68.648 Y201.422 E57.36553
G1 X68.551 Y200.267 E57.40408
G1 X68.538 Y199.658 E57.42434
G1 X68.539 Y100.536 E60.72115
G1 F1500 E54.22115
;MESH:WarflyingBoxV0_2-Upper(Meshed).stl
G0 F6000 X78.073 Y100.8
G0 X79.538 Y100.8
G0 X142.928 Y198.799
G1 F1500 E60.72115
G0 F6000 X143.138 Y199.4
;TYPE:WALL-INNER
G1 F1200 X143.138 Y198.914 E60.73731
G1 F1179.4 X143.131 Y198.657 E60.74601
G1 F1140.1 X143.124 Y198.4 E60.75501
G1 F1103.4 X143.117 Y198.143 E60.76431
G1 F1088.4 X143.117 Y196.549 E60.82276
G1 X143.117 Y194.954 E60.88125
G1 X143.117 Y193.359 E60.93974
G1 X143.117 Y191.764 E60.99823
G1 X143.117 Y190.169 E61.05671
G1 X143.117 Y188.574 E61.1152
G1 X143.117 Y186.979 E61.17369
G1 X143.117 Y185.384 E61.23218
G1 X143.117 Y183.789 E61.29066
G1 X143.117 Y182.194 E61.34915
G1 X143.117 Y180.599 E61.40764
G1 X143.117 Y179.004 E61.46613
G1 F1090.9 X143.117 Y177.409 E61.52448
G1 X143.117 Y175.814 E61.58284
G1 X143.117 Y174.219 E61.64119
G1 X143.117 Y172.624 E61.69955
G1 X143.117 Y171.029 E61.7579
G1 X143.117 Y169.434 E61.81626
G1 X143.117 Y167.839 E61.87461
