;FLAVOR:Marlin
;TIME:24831
;Filament used: 20.2499m
;Layer height: 0.2
;MINX:106.5
;MINY:89
;MINZ:0.2
;MAXX:193.5
;MAXY:211
;MAXZ:40
;Generated with Cura_SteamEngine main
M140 S60
M105
M190 S60
M104 S200
M105
M109 S200
M82 ;absolute extrusion mode
; Ender 3 Max Custom Start G-code
G92 E0 ; Reset Extruder
G28 ; Home all axes
G1 Z2.0 F3000 ; Move Z Axis up little to prevent scratching of Heat Bed
G1 X0.1 Y20 Z0.3 F5000.0 ; Move to start position
G1 X0.1 Y200.0 Z0.3 F1500.0 E15 ; Draw the first line
G1 X0.4 Y200.0 Z0.3 F5000.0 ; Move to side a little
G1 X0.4 Y20 Z0.3 F1500.0 E30 ; Draw the second line
G92 E0 ; Reset Extruder
G1 Z2.0 F3000 ; Move Z Axis up little to prevent scratching of Heat Bed
G1 X5 Y20 Z0.3 F5000.0 ; Move over to prevent blob squish
G92 E0
G92 E0
G1 F1500 E-6.5
;LAYER_COUNT:200
;LAYER:0
M107
G0 F6000 X109.066 Y92.958 Z0.2
G0 X106.501 Y100.525
;TYPE:SKIRT
G1 F1500 E0
G1 F1200 X106.51 Y99.86 E0.02212
G1 X106.563 Y98.924 E0.0533
G1 X106.695 Y97.995 E0.08451
G1 X106.906 Y97.081 E0.11571
G1 X107.194 Y96.189 E0.14689
G1 X107.557 Y95.324 E0.17809
G1 X107.992 Y94.493 E0.20928
G1 X108.496 Y93.703 E0.24045
G1 X109.066 Y92.958 E0.27165
G1 X109.698 Y92.264 E0.30287
G1 X110.386 Y91.627 E0.33405
G1 X111.126 Y91.051 E0.36524
G1 X111.912 Y90.539 E0.39644
G1 X112.739 Y90.097 E0.42763
G1 X113.601 Y89.727 E0.45883
G1 X114.491 Y89.431 E0.49003
G1 X115.403 Y89.213 E0.52122
G1 X116.33 Y89.072 E0.5524
G1 X117.201 Y89.013 E0.58144
G1 X117.83 Y89 E0.60236
G1 X181.951 Y89.001 E2.73504
G1 X182.649 Y89.011 E2.75825
G1 X183.585 Y89.065 E2.78944
G1 X184.513 Y89.197 E2.82061
G1 X185.427 Y89.409 E2.85182
G1 X186.319 Y89.698 E2.88301
G1 X187.184 Y90.061 E2.91421
G1 X188.014 Y90.497 E2.94539
G1 X188.805 Y91.002 E2.9766
G1 X189.549 Y91.573 E3.0078
G1 X190.242 Y92.205 E3.03899
G1 X190.879 Y92.893 E3.07018
G1 X191.454 Y93.634 E3.10137
G1 X191.965 Y94.42 E3.13255
G1 X192.407 Y95.248 E3.16377
G1 X192.776 Y96.11 E3.19496
G1 X193.071 Y97 E3.22614
G1 X193.289 Y97.912 E3.25733
G1 X193.429 Y98.84 E3.28855
G1 X193.487 Y99.701 E3.31725
G1 X193.5 Y100.33 E3.33817
G1 X193.499 Y199.4 E6.63325
G1 X193.49 Y200.127 E6.65744
G1 X193.439 Y201.064 E6.68865
G1 X193.307 Y201.992 E6.71982
G1 X193.098 Y202.906 E6.75101
G1 X192.811 Y203.799 E6.78221
G1 X192.449 Y204.665 E6.81342
G1 X192.015 Y205.496 E6.84461
G1 X191.511 Y206.287 E6.8758
G1 X190.942 Y207.032 E6.90698
G1 X190.311 Y207.727 E6.9382
G1 X189.624 Y208.365 E6.96939
G1 X188.885 Y208.942 E7.00057
G1 X188.099 Y209.454 E7.03177
G1 X187.273 Y209.897 E7.06294
G1 X186.411 Y210.269 E7.09417
G1 X185.522 Y210.565 E7.12533
G1 X184.61 Y210.785 E7.15654
G1 X183.683 Y210.926 E7.18772
G1 X182.799 Y210.987 E7.2172
G1 X182.17 Y211 E7.23812
G1 X118.065 Y210.999 E9.37026
G1 X117.367 Y210.99 E9.39348
G1 X116.431 Y210.938 E9.42466
G1 X115.502 Y210.806 E9.45587
G1 X114.588 Y210.596 E9.48706
G1 X113.695 Y210.309 E9.51826
G1 X112.83 Y209.946 E9.54946
G1 X111.999 Y209.512 E9.58064
G1 X111.208 Y209.008 E9.61184
G1 X110.463 Y208.438 E9.64303
G1 X109.769 Y207.807 E9.67423
G1 X109.132 Y207.12 E9.70539
G1 X108.555 Y206.38 E9.7366
G1 X108.043 Y205.594 E9.7678
G1 X107.6 Y204.767 E9.79901
G1 X107.229 Y203.906 E9.83019
G1 X106.933 Y203.016 E9.86138
G1 X106.714 Y202.104 E9.89258
G1 X106.573 Y201.177 E9.92377
G1 X106.513 Y200.288 E9.9534
G1 X106.5 Y199.658 E9.97436
G1 X106.501 Y100.525 E13.27154
G0 F6000 X106.901 Y100.531
G1 F1200 X106.91 Y99.866 E13.29366
G1 X106.962 Y98.946 E13.32431
G1 X107.094 Y98.035 E13.35492
G1 X107.305 Y97.139 E13.38554
G1 X107.592 Y96.264 E13.41617
G1 X107.955 Y95.418 E13.44679
G1 X108.389 Y94.606 E13.47741
G1 X108.892 Y93.835 E13.50803
G1 X109.461 Y93.111 E13.53865
G1 X110.089 Y92.439 E13.56925
G1 X110.774 Y91.823 E13.59989
G1 X111.51 Y91.27 E13.6305
G1 X112.291 Y90.782 E13.66114
G1 X113.111 Y90.364 E13.69175
G1 X113.965 Y90.019 E13.72238
G1 X114.845 Y89.749 E13.753
G1 X115.745 Y89.557 E13.78361
G1 X116.659 Y89.443 E13.81424
G1 X117.212 Y89.413 E13.83266
G1 X117.83 Y89.4 E13.85322
G1 X181.945 Y89.401 E15.98569
G1 X182.643 Y89.411 E16.00891
G1 X183.562 Y89.464 E16.03953
G1 X184.473 Y89.597 E16.07015
G1 X185.369 Y89.808 E16.10077
G1 X186.243 Y90.096 E16.13137
G1 X187.09 Y90.459 E16.16202
G1 X187.901 Y90.894 E16.19263
G1 X188.671 Y91.398 E16.22324
G1 X189.395 Y91.967 E16.25387
G1 X190.067 Y92.597 E16.2845
G1 X190.682 Y93.282 E16.31512
G1 X191.235 Y94.018 E16.34574
G1 X191.722 Y94.799 E16.37635
G1 X192.139 Y95.62 E16.40698
G1 X192.484 Y96.474 E16.43762
G1 X192.753 Y97.354 E16.46822
G1 X192.945 Y98.255 E16.49886
G1 X193.058 Y99.168 E16.52946
G1 X193.087 Y99.712 E16.54758
G1 X193.1 Y100.33 E16.56814
G1 X193.099 Y199.395 E19.86305
G1 X193.09 Y200.122 E19.88724
G1 X193.039 Y201.041 E19.91785
G1 X192.908 Y201.953 E19.94849
G1 X192.698 Y202.849 E19.9791
G1 X192.412 Y203.724 E20.00972
G1 X192.051 Y204.571 E20.04034
G1 X191.617 Y205.383 E20.07097
G1 X191.115 Y206.155 E20.10159
G1 X190.547 Y206.88 E20.13223
G1 X189.919 Y207.553 E20.16284
G1 X189.235 Y208.169 E20.19346
G1 X188.5 Y208.723 E20.22407
G1 X187.72 Y209.212 E20.25469
G1 X186.9 Y209.631 E20.28532
G1 X186.047 Y209.977 E20.31593
G1 X185.167 Y210.248 E20.34656
G1 X184.267 Y210.441 E20.37717
G1 X183.353 Y210.556 E20.40781
G1 X182.788 Y210.587 E20.42663
G1 X182.17 Y210.6 E20.44719
G1 X118.07 Y210.599 E22.57917
G1 X117.372 Y210.59 E22.60239
G1 X116.453 Y210.538 E22.633
G1 X115.542 Y210.407 E22.66361
G1 X114.646 Y210.197 E22.69422
G1 X113.771 Y209.91 E22.72485
G1 X112.924 Y209.548 E22.75548
G1 X112.112 Y209.114 E22.78611
G1 X111.341 Y208.612 E22.81671
G1 X110.616 Y208.044 E22.84734
G1 X109.943 Y207.415 E22.87798
G1 X109.328 Y206.731 E22.90857
G1 X108.774 Y205.996 E22.93919
G1 X108.286 Y205.215 E22.96982
G1 X107.867 Y204.395 E23.00044
G1 X107.521 Y203.542 E23.03106
G1 X107.251 Y202.662 E23.06167
G1 X107.058 Y201.761 E23.09232
G1 X106.944 Y200.848 E23.12292
G1 X106.913 Y200.277 E23.14194
G1 X106.9 Y199.658 E23.16254
G1 X106.901 Y100.531 E26.45951
G0 F6000 X107.301 Y100.536
G1 F1200 X107.31 Y99.871 E26.48163
G1 X107.362 Y98.969 E26.51168
G1 X107.494 Y98.076 E26.54171
G1 X107.704 Y97.198 E26.57173
G1 X107.991 Y96.341 E26.60179
G1 X108.353 Y95.514 E26.63182
G1 X108.786 Y94.722 E26.66184
G1 X109.288 Y93.971 E26.69189
G1 X109.855 Y93.267 E26.72195
G1 X110.481 Y92.617 E26.75197
G1 X111.162 Y92.024 E26.782
G1 X111.894 Y91.494 E26.81206
G1 X112.669 Y91.031 E26.84208
G1 X113.482 Y90.638 E26.87212
G1 X114.327 Y90.318 E26.90217
G1 X115.196 Y90.075 E26.93218
G1 X116.084 Y89.909 E26.96223
G1 X117.223 Y89.813 E27.00025
G1 X117.83 Y89.8 E27.02044
G1 X181.939 Y89.801 E29.15272
G1 X182.637 Y89.811 E29.17593
G1 X183.539 Y89.864 E29.20599
G1 X184.432 Y89.996 E29.23601
G1 X185.31 Y90.207 E29.26604
G1 X186.166 Y90.495 E29.29608
G1 X186.993 Y90.857 E29.32611
G1 X187.785 Y91.292 E29.35616
G1 X188.536 Y91.794 E29.38621
G1 X189.239 Y92.361 E29.41625
G1 X189.889 Y92.988 E29.44628
G1 X190.481 Y93.67 E29.47632
G1 X191.011 Y94.401 E29.50635
G1 X191.473 Y95.177 E29.53639
G1 X191.866 Y95.99 E29.56642
G1 X192.184 Y96.835 E29.59645
G1 X192.427 Y97.705 E29.6265
G1 X192.592 Y98.593 E29.65654
G1 X192.687 Y99.723 E29.69425
G1 X192.7 Y100.33 E29.71445
G1 X192.699 Y199.39 E33.0092
G1 X192.69 Y200.117 E33.03338
G1 X192.639 Y201.019 E33.06343
G1 X192.508 Y201.913 E33.09348
G1 X192.299 Y202.791 E33.1235
G1 X192.013 Y203.648 E33.15355
G1 X191.652 Y204.476 E33.18359
G1 X191.22 Y205.268 E33.2136
G1 X190.719 Y206.02 E33.24365
G1 X190.153 Y206.724 E33.27369
G1 X189.528 Y207.375 E33.30371
G1 X188.847 Y207.969 E33.33377
G1 X188.116 Y208.5 E33.36382
G1 X187.342 Y208.964 E33.39383
G1 X186.529 Y209.358 E33.42388
G1 X185.685 Y209.678 E33.4539
G1 X184.815 Y209.923 E33.48396
G1 X183.928 Y210.089 E33.51398
G1 X182.777 Y210.187 E33.5524
G1 X182.17 Y210.2 E33.57259
G1 X118.075 Y210.199 E35.7044
G1 X117.377 Y210.19 E35.72762
G1 X116.476 Y210.139 E35.75763
G1 X115.582 Y210.007 E35.78769
G1 X114.704 Y209.798 E35.81771
G1 X113.847 Y209.511 E35.84777
G1 X113.02 Y209.15 E35.87778
G1 X112.227 Y208.717 E35.90783
G1 X111.476 Y208.216 E35.93786
G1 X110.772 Y207.65 E35.9679
G1 X110.121 Y207.024 E35.99794
G1 X109.528 Y206.343 E36.02797
G1 X108.998 Y205.612 E36.05801
G1 X108.534 Y204.837 E36.08805
G1 X108.14 Y204.024 E36.1181
G1 X107.82 Y203.18 E36.14812
G1 X107.576 Y202.31 E36.17817
G1 X107.41 Y201.422 E36.20822
G1 X107.313 Y200.267 E36.24677
G1 X107.3 Y199.658 E36.26703
G1 X107.301 Y100.536 E39.56384
G1 F1500 E33.06384
;MESH:WarflyingBoxV0.2-Body.stl
G0 F6000 X116.835 Y100.536
G0 X118.1 Y199.4
;TYPE:WALL-INNER
G1 F1500 E39.56384
G1 F1200 X181.9 Y199.4 E41.68584
G1 X181.9 Y132.5 E43.91094
G1 X181.9 Y100.6 E44.97194
G1 X118.1 Y100.6 E47.09394
G1 X118.1 Y199.4 E50.38004
G0 F6000 X117.7 Y199.8
;TYPE:WALL-OUTER
G1 F1200 X182.3 Y199.8 E52.52864
G1 X182.3 Y132.5 E54.76705
G1 X182.3 Y100.2 E55.84135
G1 X117.7 Y100.2 E57.98996
G1 X117.7 Y199.8 E61.30266
G0 F6000 X117.97 Y199.53
G0 X118.2 Y199.04
G0 X118.46 Y199.04
;TYPE:SKIN
G1 F1200 X181.54 Y199.04 E63.40071
G1 X181.54 Y132.5 E65.61384
G1 X181.54 Y100.96 E66.66287
G1 X118.46 Y100.96 E68.76092
G1 X118.46 Y199.04 E72.02307
G0 F6000 X119.077 Y198.839
G1 F1200 X118.659 Y198.421 E72.04273
G0 F6000 X118.659 Y197.855
G1 F1200 X119.643 Y198.839 E72.08902
G0 F6000 X120.208 Y198.839
G1 F1200 X118.659 Y197.289 E72.1619
G0 F6000 X118.659 Y196.724
G1 F1200 X120.774 Y198.839 E72.26138
G0 F6000 X121.34 Y198.839
G1 F1200 X118.659 Y196.158 E72.38749
G0 F6000 X118.659 Y195.592
G1 F1200 X121.905 Y198.839 E72.5402
G0 F6000 X122.471 Y198.839
G1 F1200 X118.659 Y195.027 E72.7195
G0 F6000 X118.659 Y194.461
G1 F1200 X123.037 Y198.839 E72.92543
G0 F6000 X123.602 Y198.839
G1 F1200 X118.659 Y193.895 E73.15796
G0 F6000 X118.659 Y193.33
G1 F1200 X124.168 Y198.839 E73.41708
G0 F6000 X124.734 Y198.839
G1 F1200 X118.659 Y192.764 E73.70283
G0 F6000 X118.659 Y192.198
G1 F1200 X125.3 Y198.839 E74.0152
G0 F6000 X125.865 Y198.839
G1 F1200 X118.659 Y191.633 E74.35415
G0 F6000 X118.659 Y191.067
G1 F1200 X126.431 Y198.839 E74.71972
G0 F6000 X126.997 Y198.839
G1 F1200 X118.659 Y190.501 E75.11192
G0 F6000 X118.659 Y189.935
G1 F1200 X127.562 Y198.839 E75.53071
G0 F6000 X128.128 Y198.839
G1 F1200 X118.659 Y189.37 E75.9761
G0 F6000 X118.659 Y188.804
G1 F1200 X128.694 Y198.839 E76.44812
G0 F6000 X129.259 Y198.839
G1 F1200 X118.659 Y188.238 E76.94673
G0 F6000 X118.659 Y187.673
G1 F1200 X129.825 Y198.839 E77.47195
G0 F6000 X130.391 Y198.839
G1 F1200 X118.659 Y187.107 E78.02378
G0 F6000 X118.659 Y186.541
G1 F1200 X130.956 Y198.839 E78.60222
G0 F6000 X131.522 Y198.839
G1 F1200 X118.659 Y185.976 E79.20726
G0 F6000 X118.659 Y185.41
G1 F1200 X132.088 Y198.839 E79.83892
G0 F6000 X132.653 Y198.839
G1 F1200 X118.659 Y184.844 E80.49718
G0 F6000 X118.659 Y184.279
G1 F1200 X133.219 Y198.839 E81.18203
G0 F6000 X133.785 Y198.839
G1 F1200 X118.659 Y183.713 E81.89351
G0 F6000 X118.659 Y183.147
G1 F1200 X134.35 Y198.839 E82.63159
G0 F6000 X134.916 Y198.839
G1 F1200 X118.659 Y182.582 E83.39627
G0 F6000 X118.659 Y182.016
G1 F1200 X135.482 Y198.839 E84.18758
G0 F6000 X136.048 Y198.839
G1 F1200 X118.659 Y181.45 E85.0055
G0 F6000 X118.659 Y180.884
G1 F1200 X136.613 Y198.839 E85.85003
G0 F6000 X137.179 Y198.839
G1 F1200 X118.659 Y180.319 E86.72115
G0 F6000 X118.659 Y179.753
G1 F1200 X137.745 Y198.839 E87.6189
G0 F6000 X138.31 Y198.839
G1 F1200 X118.659 Y179.187 E88.54324
G0 F6000 X118.659 Y178.622
G1 F1200 X138.876 Y198.839 E89.49419
G0 F6000 X139.442 Y198.839
G1 F1200 X118.659 Y178.056 E90.47176
G0 F6000 X118.659 Y177.49
G1 F1200 X140.007 Y198.839 E91.47592
G0 F6000 X140.573 Y198.839
G1 F1200 X118.659 Y176.925 E92.50669
G0 F6000 X118.659 Y176.359
G1 F1200 X141.139 Y198.839 E93.56408
G0 F6000 X141.704 Y198.839
G1 F1200 X118.659 Y175.793 E94.64807
G0 F6000 X118.659 Y175.228
G1 F1200 X142.27 Y198.839 E95.75866
G0 F6000 X142.836 Y198.839
G1 F1200 X118.659 Y174.662 E96.89587
G0 F6000 X118.659 Y174.096
G1 F1200 X143.401 Y198.839 E98.05968
G0 F6000 X143.967 Y198.839
G1 F1200 X118.659 Y173.531 E99.2501
G0 F6000 X118.659 Y172.965
G1 F1200 X144.533 Y198.839 E100.46713
G0 F6000 X145.099 Y198.839
G1 F1200 X118.659 Y172.399 E101.71079
G0 F6000 X118.659 Y171.834
G1 F1200 X145.664 Y198.839 E102.98102
G0 F6000 X146.23 Y198.839
G1 F1200 X118.659 Y171.268 E104.27787
G0 F6000 X118.659 Y170.702
G1 F1200 X146.796 Y198.839 E105.60135
G0 F6000 X147.361 Y198.839
G1 F1200 X118.659 Y170.136 E106.95143
G0 F6000 X118.659 Y169.571
G1 F1200 X147.927 Y198.839 E108.32811
G0 F6000 X148.493 Y198.839
G1 F1200 X118.659 Y169.005 E109.73141
G0 F6000 X118.659 Y168.439
G1 F1200 X149.058 Y198.839 E111.16131
G0 F6000 X149.624 Y198.839
G1 F1200 X118.659 Y167.874 E112.6178
G0 F6000 X118.659 Y167.308
G1 F1200 X150.19 Y198.839 E114.10093
G0 F6000 X150.755 Y198.839
G1 F1200 X118.659 Y166.742 E115.61065
G0 F6000 X118.659 Y166.177
G1 F1200 X151.321 Y198.839 E117.14697
G0 F6000 X151.887 Y198.839
G1 F1200 X118.659 Y165.611 E118.70991
G0 F6000 X118.659 Y165.045
G1 F1200 X152.452 Y198.839 E120.29945
G0 F6000 X153.018 Y198.839
G1 F1200 X118.659 Y164.48 E121.91559
G0 F6000 X118.659 Y163.914
G1 F1200 X153.584 Y198.839 E123.55836
G0 F6000 X154.149 Y198.839
G1 F1200 X118.659 Y163.348 E125.22772
G0 F6000 X118.659 Y162.783
G1 F1200 X154.715 Y198.839 E126.92369
G0 F6000 X155.281 Y198.839
G1 F1200 X118.659 Y162.217 E128.64627
G0 F6000 X118.659 Y161.651
G1 F1200 X155.847 Y198.839 E130.39548
G0 F6000 X156.412 Y198.839
G1 F1200 X118.659 Y161.085 E132.17129
G0 F6000 X118.659 Y160.52
G1 F1200 X156.978 Y198.839 E133.9737
G0 F6000 X157.544 Y198.839
G1 F1200 X118.659 Y159.954 E135.80273
G0 F6000 X118.659 Y159.388
G1 F1200 X158.109 Y198.839 E137.65836
G0 F6000 X158.675 Y198.839
G1 F1200 X118.659 Y158.823 E139.54059
G0 F6000 X118.659 Y158.257
G1 F1200 X159.241 Y198.839 E141.44945
G0 F6000 X159.806 Y198.839
G1 F1200 X118.659 Y157.691 E143.3849
G0 F6000 X118.659 Y157.126
G1 F1200 X160.372 Y198.839 E145.34695
G0 F6000 X160.938 Y198.839
G1 F1200 X118.659 Y156.56 E147.33562
G0 F6000 X118.659 Y155.994
G1 F1200 X161.503 Y198.839 E149.3509
G0 F6000 X162.069 Y198.839
G1 F1200 X118.659 Y155.429 E151.39277
G0 F6000 X118.659 Y154.863
G1 F1200 X162.635 Y198.839 E153.46127
G0 F6000 X163.2 Y198.839
G1 F1200 X118.659 Y154.297 E155.55636
G0 F6000 X118.659 Y153.732
G1 F1200 X163.766 Y198.839 E157.67806
G0 F6000 X164.332 Y198.839
G1 F1200 X118.659 Y153.166 E159.82638
G0 F6000 X118.659 Y152.6
G1 F1200 X164.898 Y198.839 E162.00132
G0 F6000 X165.463 Y198.839
G1 F1200 X118.659 Y152.035 E164.20283
G0 F6000 X118.659 Y151.469
G1 F1200 X166.029 Y198.839 E166.43097
G0 F6000 X166.595 Y198.839
G1 F1200 X118.659 Y150.903 E168.68574
G0 F6000 X118.659 Y150.337
G1 F1200 X167.16 Y198.839 E170.9671
G0 F6000 X167.726 Y198.839
G1 F1200 X118.659 Y149.772 E173.27506
G0 F6000 X118.659 Y149.206
G1 F1200 X168.292 Y198.839 E175.60964
G0 F6000 X168.857 Y198.839
G1 F1200 X118.659 Y148.64 E177.97083
G0 F6000 X118.659 Y148.075
G1 F1200 X169.423 Y198.839 E180.35861
G0 F6000 X169.989 Y198.839
G1 F1200 X118.659 Y147.509 E182.77301
G0 F6000 X118.659 Y146.943
G1 F1200 X170.554 Y198.839 E185.21402
G0 F6000 X171.12 Y198.839
G1 F1200 X118.659 Y146.378 E187.68162
G0 F6000 X118.659 Y145.812
G1 F1200 X171.686 Y198.839 E190.17585
G0 F6000 X172.251 Y198.839
G1 F1200 X118.659 Y145.246 E192.69668
G0 F6000 X118.659 Y144.681
G1 F1200 X172.817 Y198.839 E195.24411
G0 F6000 X173.383 Y198.839
G1 F1200 X118.659 Y144.115 E197.81815
G0 F6000 X118.659 Y143.549
G1 F1200 X173.948 Y198.839 E200.4188
G0 F6000 X174.514 Y198.839
G1 F1200 X118.659 Y142.984 E203.04605
G0 F6000 X118.659 Y142.418
G1 F1200 X175.08 Y198.839 E205.69992
G0 F6000 X175.646 Y198.839
G1 F1200 X118.659 Y141.852 E208.38042
G0 F6000 X118.659 Y141.287
G1 F1200 X176.211 Y198.839 E211.08749
G0 F6000 X176.777 Y198.839
G1 F1200 X118.659 Y140.721 E213.82118
G0 F6000 X118.659 Y140.155
G1 F1200 X177.343 Y198.839 E216.58149
G0 F6000 X177.908 Y198.839
G1 F1200 X118.659 Y139.589 E219.36841
G0 F6000 X118.659 Y139.024
G1 F1200 X178.474 Y198.839 E222.18192
G0 F6000 X179.04 Y198.839
G1 F1200 X118.659 Y138.458 E225.02206
G0 F6000 X118.659 Y137.892
G1 F1200 X179.605 Y198.839 E227.8888
G0 F6000 X180.171 Y198.839
