;FLAVOR:Marlin
;TIME:24954
;Filament used: 26.917m
;Layer height: 0.2
;MINX:74
;MINY:49
;MINZ:0.2
;MAXX:146
;MAXY:171
;MAXZ:50
;Generated with Cura_SteamEngine main
M82 ;absolute extrusion mode
; Ender 3 Custom Start G-code
G92 E0 ; Reset Extruder
G28 ; Home all axes
M104 S175 ; Start heating up the nozzle most of the way
M190 S60 ; Start heating the bed, wait until target temperature reached
M109 S200 ; Finish heating the nozzle
G1 Z2.0 F3000 ; Move Z Axis up little to prevent scratching of Heat Bed
G1 X0.1 Y20 Z0.3 F5000.0 ; Move to start position
G1 X0.1 Y200.0 Z0.3 F1500.0 E15 ; Draw the first line
G1 X0.4 Y200.0 Z0.3 F5000.0 ; Move to side a little
G1 X0.4 Y20 Z0.3 F1500.0 E30 ; Draw the second line
G92 E0 ; Reset Extruder
G1 Z2.0 F3000 ; Move Z Axis up little to prevent scratching of Heat Bed
G1 X5 Y20 Z0.3 F5000.0 ; Move over to prevent blob squish
G92 E0
G92 E0
G1 F1500 E-6.5
;LAYER_COUNT:250
;LAYER:0
M107
G0 F6000 X77.743 Y56.692 Z0.2
G0 X74.001 Y68.529
;TYPE:SKIRT
G1 F1500 E0
G1 F1200 X74.012 Y67.702 E0.02751
G1 X74.035 Y67.031 E0.04984
G1 X74.069 Y66.508 E0.06727
G1 X74.104 Y66.115 E0.08039
G1 X74.212 Y65.237 E0.10982
G1 X74.302 Y64.678 E0.12865
G1 X74.374 Y64.296 E0.14158
G1 X74.488 Y63.764 E0.15967
G1 X74.58 Y63.381 E0.17277
G1 X74.714 Y62.878 E0.19009
G1 X74.828 Y62.486 E0.20367
G1 X75.003 Y61.939 E0.22277
G1 X75.302 Y61.115 E0.25192
G1 X75.449 Y60.748 E0.26507
G1 X75.668 Y60.237 E0.28356
G1 X75.831 Y59.883 E0.29653
G1 X76.077 Y59.383 E0.31506
G1 X76.256 Y59.041 E0.3279
G1 X76.51 Y58.583 E0.34532
G1 X76.722 Y58.221 E0.35927
G1 X76.989 Y57.788 E0.37619
G1 X77.191 Y57.477 E0.38852
G1 X77.515 Y57.006 E0.40754
G1 X77.743 Y56.692 E0.42044
G1 X78.06 Y56.277 E0.43781
G1 X78.306 Y55.97 E0.4509
G1 X78.678 Y55.53 E0.47006
G1 X78.94 Y55.236 E0.48316
G1 X79.29 Y54.861 E0.50022
G1 X79.563 Y54.582 E0.5132
G1 X79.952 Y54.204 E0.53124
G1 X80.249 Y53.929 E0.54471
G1 X80.658 Y53.568 E0.56285
G1 X80.966 Y53.31 E0.57621
G1 X81.373 Y52.985 E0.59354
G1 X81.665 Y52.763 E0.60574
G1 X82.094 Y52.453 E0.62334
G1 X82.439 Y52.216 E0.63726
G1 X82.941 Y51.891 E0.65715
G1 X83.7 Y51.442 E0.68648
G1 X84.064 Y51.243 E0.70028
G1 X84.548 Y50.994 E0.71839
G1 X84.893 Y50.827 E0.73113
G1 X85.383 Y50.604 E0.74904
G1 X85.743 Y50.451 E0.76205
G1 X86.582 Y50.127 E0.79196
G1 X87.128 Y49.94 E0.81116
G1 X87.511 Y49.82 E0.82451
G1 X88.047 Y49.667 E0.84305
G1 X88.43 Y49.568 E0.8562
G1 X89.25 Y49.383 E0.88416
G1 X89.81 Y49.279 E0.90311
G1 X90.219 Y49.214 E0.91688
G1 X90.779 Y49.14 E0.93567
G1 X91.668 Y49.056 E0.96537
G1 X92.077 Y49.031 E0.979
G1 X92.61 Y49.012 E0.99674
G1 X93.622 Y49 E1.0304
G1 X126.325 Y49 E2.11811
G1 X127.265 Y49.011 E2.14937
G1 X127.969 Y49.035 E2.1728
G1 X128.879 Y49.104 E2.20315
G1 X129.405 Y49.163 E2.22076
G1 X130.288 Y49.296 E2.25046
G1 X130.671 Y49.367 E2.26341
G1 X131.255 Y49.492 E2.28328
G1 X131.639 Y49.585 E2.29642
G1 X132.489 Y49.82 E2.32575
G1 X133.045 Y49.997 E2.34516
G1 X133.41 Y50.124 E2.35801
G1 X134.252 Y50.449 E2.38803
G1 X134.763 Y50.668 E2.40652
G1 X135.117 Y50.831 E2.41948
G1 X135.617 Y51.077 E2.43802
G1 X136.401 Y51.5 E2.46765
G1 X136.761 Y51.71 E2.48151
G1 X137.231 Y52.001 E2.49989
G1 X137.545 Y52.206 E2.51237
G1 X138.004 Y52.522 E2.5309
G1 X138.316 Y52.749 E2.54373
G1 X139.012 Y53.291 E2.57308
G1 X139.471 Y53.678 E2.59304
G1 X139.766 Y53.941 E2.60619
G1 X140.406 Y54.551 E2.6356
G1 X140.77 Y54.924 E2.65293
G1 X141.05 Y55.225 E2.6666
G1 X141.42 Y55.643 E2.68517
G1 X141.682 Y55.955 E2.69872
G1 X142.022 Y56.381 E2.71685
G1 X142.245 Y56.675 E2.72912
G1 X142.547 Y57.093 E2.74627
G1 X142.782 Y57.435 E2.76008
G1 X143.107 Y57.938 E2.77999
G1 X143.545 Y58.678 E2.80859
G1 X143.742 Y59.037 E2.82221
G1 X143.998 Y59.533 E2.84078
G1 X144.17 Y59.888 E2.8539
G1 X144.393 Y60.378 E2.8718
G1 X144.547 Y60.74 E2.88489
G1 X144.737 Y61.218 E2.902
G1 X144.871 Y61.579 E2.9148
G1 X145.047 Y62.091 E2.93281
G1 X145.17 Y62.48 E2.94638
G1 X145.325 Y63.018 E2.965
G1 X145.426 Y63.405 E2.97831
G1 X145.551 Y63.934 E2.99639
G1 X145.626 Y64.293 E3.00858
G1 X145.721 Y64.814 E3.0262
G1 X145.784 Y65.21 E3.03953
G1 X145.858 Y65.765 E3.05816
G1 X145.901 Y66.166 E3.07157
G1 X145.943 Y66.665 E3.08823
G1 X145.968 Y67.072 E3.10179
G1 X145.988 Y67.604 E3.1195
G1 X146 Y68.601 E3.15266
G1 X145.999 Y151.462 E5.90863
G1 X145.989 Y152.264 E5.9353
G1 X145.965 Y152.968 E5.95873
G1 X145.931 Y153.489 E5.9761
G1 X145.896 Y153.883 E5.98925
G1 X145.838 Y154.4 E6.00656
G1 X145.787 Y154.773 E6.01908
G1 X145.704 Y155.288 E6.03643
G1 X145.633 Y155.671 E6.04938
G1 X145.508 Y156.255 E6.06925
G1 X145.415 Y156.639 E6.08239
G1 X145.18 Y157.489 E6.11172
G1 X145.003 Y158.045 E6.13113
G1 X144.876 Y158.41 E6.14398
G1 X144.551 Y159.252 E6.174
G1 X144.332 Y159.763 E6.19249
G1 X144.169 Y160.117 E6.20545
G1 X143.923 Y160.617 E6.22399
G1 X143.744 Y160.959 E6.23683
G1 X143.49 Y161.417 E6.25425
G1 X143.278 Y161.779 E6.2682
G1 X143.011 Y162.212 E6.28512
G1 X142.809 Y162.523 E6.29745
G1 X142.485 Y162.994 E6.31647
G1 X142.257 Y163.308 E6.32937
G1 X141.94 Y163.723 E6.34674
G1 X141.694 Y164.03 E6.35983
G1 X141.322 Y164.47 E6.37899
G1 X141.06 Y164.764 E6.39209
G1 X140.71 Y165.139 E6.40915
G1 X140.437 Y165.418 E6.42213
G1 X140.048 Y165.796 E6.44017
G1 X139.751 Y166.071 E6.45363
G1 X139.342 Y166.432 E6.47178
G1 X139.034 Y166.69 E6.48514
G1 X138.627 Y167.015 E6.50247
G1 X138.335 Y167.237 E6.51467
G1 X137.906 Y167.547 E6.53227
G1 X137.561 Y167.784 E6.54619
G1 X137.059 Y168.109 E6.56608
G1 X136.3 Y168.558 E6.59541
G1 X135.936 Y168.757 E6.60921
G1 X135.451 Y169.006 E6.62734
G1 X135.108 Y169.172 E6.64002
G1 X134.629 Y169.39 E6.65752
G1 X134.27 Y169.543 E6.6705
G1 X133.788 Y169.735 E6.68776
G1 X133.422 Y169.871 E6.70074
G1 X132.906 Y170.049 E6.7189
G1 X132.52 Y170.171 E6.73236
G1 X131.976 Y170.327 E6.75119
G1 X131.588 Y170.428 E6.76452
G1 X131.066 Y170.551 E6.78236
G1 X130.707 Y170.626 E6.79456
G1 X130.182 Y170.722 E6.81231
G1 X129.785 Y170.785 E6.82568
G1 X129.237 Y170.858 E6.84406
G1 X128.332 Y170.944 E6.8743
G1 X127.923 Y170.969 E6.88793
G1 X127.39 Y170.988 E6.90567
G1 X126.378 Y171 E6.93933
G1 X93.538 Y170.999 E8.03159
G1 X92.736 Y170.989 E8.05827
G1 X92.032 Y170.965 E8.0817
G1 X91.508 Y170.931 E8.09916
G1 X91.115 Y170.896 E8.11229
G1 X90.237 Y170.788 E8.14171
G1 X89.678 Y170.698 E8.16054
G1 X89.296 Y170.626 E8.17347
G1 X88.764 Y170.512 E8.19157
G1 X88.381 Y170.42 E8.20467
G1 X87.881 Y170.287 E8.22187
G1 X87.499 Y170.176 E8.23511
G1 X86.961 Y170.005 E8.25388
G1 X86.598 Y169.879 E8.26666
G1 X86.101 Y169.693 E8.28431
G1 X85.733 Y169.545 E8.2975
G1 X85.247 Y169.336 E8.3151
G1 X84.892 Y169.173 E8.32809
G1 X84.38 Y168.921 E8.34707
G1 X84.04 Y168.743 E8.35984
G1 X83.586 Y168.492 E8.37709
G1 X83.222 Y168.279 E8.39112
G1 X82.773 Y168.001 E8.40868
G1 X82.463 Y167.799 E8.42099
G1 X82.01 Y167.488 E8.43926
G1 X81.697 Y167.261 E8.45212
G1 X81.273 Y166.937 E8.46987
G1 X80.965 Y166.69 E8.483
G1 X80.53 Y166.323 E8.50193
G1 X80.237 Y166.062 E8.51499
G1 X79.582 Y165.437 E8.5451
G1 X79.204 Y165.048 E8.56314
G1 X78.929 Y164.751 E8.5766
G1 X78.567 Y164.341 E8.59479
G1 X78.304 Y164.027 E8.60841
G1 X77.977 Y163.618 E8.62583
G1 X77.759 Y163.331 E8.63782
G1 X77.457 Y162.912 E8.655
G1 X77.221 Y162.569 E8.66884
G1 X76.888 Y162.055 E8.68921
G1 X76.698 Y161.743 E8.70136
G1 X76.436 Y161.289 E8.7188
G1 X76.238 Y160.926 E8.73255
G1 X75.994 Y160.451 E8.75031
G1 X75.828 Y160.108 E8.76299
G1 X75.606 Y159.62 E8.78082
G1 X75.447 Y159.246 E8.79433
G1 X75.254 Y158.761 E8.8117
G1 X75.12 Y158.399 E8.82453
G1 X74.937 Y157.863 E8.84337
G1 X74.816 Y157.476 E8.85686
G1 X74.664 Y156.941 E8.87536
G1 X74.458 Y156.103 E8.90406
G1 X74.383 Y155.75 E8.91606
G1 X74.279 Y155.19 E8.93501
G1 X74.214 Y154.781 E8.94878
G1 X74.14 Y154.221 E8.96757
G1 X74.098 Y153.827 E8.98075
G1 X74.032 Y152.928 E9.01073
G1 X74.012 Y152.391 E9.0286
G1 X74 Y151.369 E9.0626
G1 X74.001 Y68.529 E11.81786
G0 F6000 X74.401 Y68.534
G1 F1200 X74.412 Y67.707 E11.84537
G1 X74.435 Y67.048 E11.8673
G1 X74.468 Y66.544 E11.8841
G1 X74.557 Y65.666 E11.91346
G1 X74.608 Y65.29 E11.92608
G1 X74.695 Y64.752 E11.9442
G1 X74.767 Y64.37 E11.95713
G1 X74.877 Y63.857 E11.97458
G1 X74.969 Y63.474 E11.98768
G1 X75.098 Y62.99 E12.00434
G1 X75.212 Y62.598 E12.01792
G1 X75.38 Y62.07 E12.03635
G1 X75.503 Y61.717 E12.04878
G1 X75.82 Y60.897 E12.07802
G1 X76.032 Y60.405 E12.09584
G1 X76.195 Y60.051 E12.1088
G1 X76.432 Y59.569 E12.12667
G1 X76.855 Y58.785 E12.1563
G1 X77.067 Y58.423 E12.17025
G1 X77.527 Y57.695 E12.19889
G1 X77.839 Y57.241 E12.21722
G1 X78.067 Y56.927 E12.23012
G1 X78.372 Y56.527 E12.24685
G1 X78.618 Y56.22 E12.25994
G1 X78.976 Y55.796 E12.27839
G1 X79.238 Y55.502 E12.29149
G1 X79.849 Y54.862 E12.32092
G1 X80.223 Y54.497 E12.3383
G1 X80.52 Y54.222 E12.35176
G1 X80.915 Y53.874 E12.36927
G1 X81.223 Y53.616 E12.38264
G1 X81.907 Y53.082 E12.4115
G1 X82.32 Y52.783 E12.42846
G1 X82.665 Y52.546 E12.44238
G1 X83.149 Y52.232 E12.46157
G1 X83.459 Y52.043 E12.47364
G1 X83.892 Y51.793 E12.49027
G1 X84.256 Y51.594 E12.50407
G1 X84.723 Y51.354 E12.52153
G1 X85.068 Y51.187 E12.53428
G1 X85.54 Y50.972 E12.55153
G1 X85.9 Y50.819 E12.56454
G1 X86.722 Y50.502 E12.59385
G1 X87.248 Y50.322 E12.61234
G1 X87.631 Y50.202 E12.62569
G1 X88.147 Y50.054 E12.64354
G1 X88.53 Y49.955 E12.6567
G1 X89.333 Y49.774 E12.68408
G1 X89.872 Y49.674 E12.70231
G1 X90.281 Y49.609 E12.71608
G1 X90.821 Y49.538 E12.7342
G1 X91.692 Y49.456 E12.7633
G1 X92.101 Y49.431 E12.77692
G1 X92.615 Y49.412 E12.79403
G1 X93.622 Y49.4 E12.82753
G1 X126.325 Y49.4 E13.91523
G1 X127.26 Y49.411 E13.94633
G1 X127.953 Y49.435 E13.9694
G1 X128.448 Y49.467 E13.9859
G1 X128.844 Y49.502 E13.99912
G1 X129.351 Y49.559 E14.01609
G1 X129.723 Y49.61 E14.02858
G1 X130.598 Y49.761 E14.05811
G1 X131.161 Y49.881 E14.07725
G1 X131.997 Y50.094 E14.10595
G1 X132.377 Y50.204 E14.11911
G1 X132.913 Y50.375 E14.13782
G1 X133.736 Y50.673 E14.16693
G1 X134.103 Y50.82 E14.18008
G1 X134.595 Y51.032 E14.1979
G1 X134.949 Y51.195 E14.21086
G1 X135.431 Y51.432 E14.22873
G1 X136.199 Y51.846 E14.25774
G1 X136.559 Y52.056 E14.27161
G1 X137.013 Y52.336 E14.28935
G1 X137.327 Y52.541 E14.30182
G1 X137.768 Y52.846 E14.31965
G1 X138.456 Y53.359 E14.3482
G1 X138.763 Y53.604 E14.36126
G1 X139.205 Y53.977 E14.3805
G1 X139.857 Y54.573 E14.40988
G1 X140.127 Y54.837 E14.42244
G1 X140.477 Y55.196 E14.43911
G1 X140.757 Y55.497 E14.45279
G1 X141.113 Y55.9 E14.47067
G1 X141.375 Y56.212 E14.48422
G1 X141.703 Y56.623 E14.50171
G1 X142.217 Y57.32 E14.53052
G1 X142.452 Y57.662 E14.54432
G1 X142.766 Y58.146 E14.56351
G1 X143.195 Y58.871 E14.59152
G1 X143.392 Y59.23 E14.60514
G1 X143.638 Y59.707 E14.623
G1 X143.81 Y60.062 E14.63612
G1 X144.025 Y60.534 E14.65337
G1 X144.179 Y60.896 E14.66645
G1 X144.496 Y61.718 E14.69575
G1 X144.666 Y62.211 E14.7131
G1 X144.789 Y62.6 E14.72667
G1 X144.938 Y63.119 E14.74463
G1 X145.039 Y63.506 E14.75793
G1 X145.159 Y64.015 E14.77532
G1 X145.234 Y64.374 E14.78752
G1 X145.326 Y64.877 E14.80453
G1 X145.389 Y65.273 E14.81787
G1 X145.461 Y65.808 E14.83582
G1 X145.504 Y66.209 E14.84923
G1 X145.569 Y67.096 E14.87881
G1 X145.588 Y67.61 E14.89592
G1 X145.6 Y68.601 E14.92889
G1 X145.599 Y151.457 E17.68469
G1 X145.589 Y152.259 E17.71136
G1 X145.565 Y152.952 E17.73443
G1 X145.532 Y153.454 E17.75116
G1 X145.497 Y153.848 E17.76432
G1 X145.441 Y154.346 E17.78098
G1 X145.39 Y154.719 E17.7935
G1 X145.31 Y155.215 E17.81022
G1 X145.239 Y155.598 E17.82317
G1 X145.119 Y156.161 E17.84232
G1 X144.906 Y156.997 E17.87101
G1 X144.796 Y157.377 E17.88417
G1 X144.625 Y157.913 E17.90288
G1 X144.327 Y158.736 E17.93199
G1 X144.18 Y159.103 E17.94514
G1 X143.968 Y159.595 E17.96296
G1 X143.805 Y159.949 E17.97592
G1 X143.568 Y160.431 E17.99379
G1 X143.145 Y161.215 E18.02342
G1 X142.933 Y161.577 E18.03737
G1 X142.473 Y162.305 E18.06601
G1 X142.161 Y162.759 E18.08433
G1 X141.933 Y163.073 E18.09724
G1 X141.628 Y163.473 E18.11397
G1 X141.382 Y163.78 E18.12706
G1 X141.024 Y164.204 E18.14551
G1 X140.762 Y164.498 E18.15861
G1 X140.151 Y165.138 E18.18804
G1 X139.777 Y165.503 E18.20542
G1 X139.48 Y165.778 E18.21888
G1 X139.085 Y166.126 E18.23639
G1 X138.777 Y166.384 E18.24976
G1 X138.093 Y166.918 E18.27862
G1 X137.68 Y167.217 E18.29558
G1 X137.335 Y167.454 E18.3095
G1 X136.851 Y167.768 E18.32869
G1 X136.541 Y167.957 E18.34076
G1 X136.108 Y168.207 E18.35739
G1 X135.744 Y168.406 E18.37119
G1 X135.277 Y168.646 E18.38865
G1 X134.934 Y168.812 E18.40133
G1 X134.472 Y169.022 E18.41821
G1 X134.113 Y169.175 E18.43119
G1 X133.649 Y169.36 E18.4478
G1 X133.283 Y169.496 E18.46079
G1 X132.785 Y169.667 E18.4783
G1 X132.399 Y169.789 E18.49176
G1 X131.875 Y169.94 E18.5099
G1 X131.487 Y170.041 E18.52324
G1 X130.985 Y170.159 E18.54039
G1 X130.626 Y170.234 E18.55259
G1 X130.119 Y170.327 E18.56973
G1 X129.722 Y170.39 E18.5831
G1 X129.194 Y170.46 E18.60082
G1 X128.794 Y170.503 E18.6142
G1 X128.308 Y170.544 E18.63042
G1 X127.899 Y170.569 E18.64405
G1 X127.385 Y170.588 E18.66115
G1 X126.378 Y170.6 E18.69465
G1 X93.543 Y170.599 E19.78675
G1 X92.741 Y170.589 E19.81342
G1 X92.048 Y170.565 E19.83649
G1 X91.544 Y170.532 E19.85328
G1 X90.666 Y170.443 E19.88264
G1 X90.29 Y170.392 E19.89526
G1 X89.752 Y170.305 E19.91338
G1 X89.37 Y170.233 E19.92631
G1 X88.857 Y170.123 E19.94376
G1 X88.474 Y170.031 E19.95686
G1 X87.992 Y169.903 E19.97345
G1 X87.61 Y169.792 E19.98668
G1 X87.092 Y169.627 E20.00476
G1 X86.729 Y169.501 E20.01754
G1 X86.25 Y169.321 E20.03456
G1 X85.882 Y169.173 E20.04776
G1 X85.414 Y168.972 E20.0647
G1 X85.059 Y168.809 E20.07769
G1 X84.566 Y168.567 E20.09595
G1 X83.788 Y168.147 E20.12536
G1 X83.424 Y167.934 E20.13939
G1 X82.681 Y167.464 E20.16863
G1 X82.245 Y167.164 E20.18623
G1 X81.932 Y166.937 E20.19909
G1 X81.523 Y166.625 E20.2162
G1 X81.215 Y166.378 E20.22933
G1 X80.796 Y166.024 E20.24758
G1 X80.503 Y165.763 E20.26063
G1 X79.862 Y165.151 E20.2901
G1 X79.497 Y164.777 E20.30749
G1 X79.222 Y164.48 E20.32095
G1 X78.874 Y164.084 E20.33848
G1 X78.611 Y163.77 E20.35211
G1 X78.296 Y163.376 E20.36888
G1 X77.786 Y162.685 E20.39745
G1 X77.55 Y162.342 E20.4113
G1 X77.23 Y161.847 E20.4309
G1 X76.787 Y161.098 E20.45984
G1 X76.589 Y160.735 E20.4736
G1 X76.354 Y160.277 E20.49072
G1 X76.188 Y159.934 E20.50339
G1 X75.974 Y159.463 E20.5206
G1 X75.815 Y159.089 E20.53411
G1 X75.629 Y158.622 E20.55083
G1 X75.495 Y158.26 E20.56367
G1 X75.319 Y157.743 E20.58184
G1 X75.198 Y157.356 E20.59532
G1 X75.051 Y156.841 E20.61314
G1 X74.849 Y156.02 E20.64126
G1 X74.774 Y155.667 E20.65326
G1 X74.674 Y155.128 E20.67149
G1 X74.609 Y154.719 E20.68527
G1 X74.538 Y154.179 E20.70338
G1 X74.456 Y153.311 E20.73238
G1 X74.431 Y152.904 E20.74594
G1 X74.412 Y152.386 E20.76318
G1 X74.4 Y151.369 E20.79701
G1 X74.401 Y68.534 E23.55211
G0 F6000 X74.801 Y68.539
G1 F1200 X74.812 Y67.712 E23.57962
G1 X74.835 Y67.064 E23.60119
G1 X74.866 Y66.579 E23.61735
G1 X74.901 Y66.186 E23.63048
G1 X75.005 Y65.344 E23.65869
G1 X75.088 Y64.826 E23.67614
G1 X75.16 Y64.444 E23.68907
G1 X75.266 Y63.951 E23.70584
G1 X75.358 Y63.568 E23.71895
G1 X75.482 Y63.102 E23.73498
G1 X75.596 Y62.71 E23.74856
G1 X75.758 Y62.202 E23.7663
G1 X76.044 Y61.412 E23.79424
G1 X76.191 Y61.045 E23.80739
G1 X76.395 Y60.572 E23.82452
G1 X76.558 Y60.218 E23.83749
G1 X76.786 Y59.754 E23.85468
G1 X77.2 Y58.987 E23.88367
G1 X77.412 Y58.625 E23.89762
G1 X77.862 Y57.913 E23.92564
G1 X78.162 Y57.476 E23.94327
G1 X78.39 Y57.162 E23.95617
G1 X78.684 Y56.777 E23.97229
G1 X78.93 Y56.47 E23.98537
G1 X79.275 Y56.062 E24.00314
G1 X79.537 Y55.768 E24.01624
G1 X80.135 Y55.141 E24.04506
G1 X80.495 Y54.791 E24.06176
G1 X80.792 Y54.516 E24.07522
G1 X81.172 Y54.181 E24.09207
G1 X81.48 Y53.923 E24.10543
G1 X82.149 Y53.4 E24.13368
G1 X82.547 Y53.113 E24.15
G1 X82.892 Y52.876 E24.16392
G1 X83.357 Y52.574 E24.18236
G1 X84.084 Y52.144 E24.21045
G1 X84.448 Y51.945 E24.22425
G1 X84.897 Y51.714 E24.24104
G1 X85.242 Y51.547 E24.25379
G1 X85.696 Y51.341 E24.27037
G1 X86.49 Y51.015 E24.29892
G1 X86.861 Y50.877 E24.31209
G1 X87.367 Y50.704 E24.32987
G1 X87.75 Y50.584 E24.34322
G1 X88.247 Y50.442 E24.36041
G1 X88.63 Y50.343 E24.37357
G1 X89.416 Y50.166 E24.40037
G1 X89.935 Y50.069 E24.41793
G1 X90.344 Y50.004 E24.4317
